X:1836
T:Bourree a quatre du Carni
C:trad.
A:Morvan
O:France
M:3/8
L:1/16
Q:1/8=180
K:C
defdef|e2c2c2|Bcdfed|e2c2c2|defdef|e2c2c2|Bcd2B2|c4c2:|
|:BcdcBA|G4e2|defdef|e2c2c2|BcdcBA|G4e2|def2B2|c6:||


